src/assets/icons/globe.svg

<svg   viewBox="0 0 24 24" fill="none" xmlns="http://www.w3.org/2000/svg">
<path d="M12 21C16.9706 21 21 16.9706 21 12C21 7.02944 16.9706 3 12 3C7.02944 3 3 7.02944 3 12C3 16.9706 7.02944 21 12 21ZM12 21V3.33618M11.0748 20.5C8.62731 18.434 7.07477 15.3559 7.07477 11.9181C7.07477 8.48025 8.62731 5.40214 11.0748 3.33618M13.0748 20.5C15.5222 18.434 17.0748 15.3559 17.0748 11.9181C17.0748 8.48025 15.5222 5.40214 13.0748 3.33618M19.9019 9.03546H4.09808M19.9019 15.1774H4.09808"  stroke="currentColor"  stroke-linecap="round" stroke-linejoin="round"/>
</svg>

<svg  viewBox="0 0 24 24" fill="none" xmlns="http://www.w3.org/2000/svg">
    <path stroke="currentColor" stroke-linecap="round" stroke-linejoin="round"   d="M12 21a9 9 0 1 0 0-18 9 9 0 0 0 0 18Zm0 0V3.336M11.075 20.5c-2.448-2.066-4-5.144-4-8.582 0-3.438 1.552-6.516 4-8.582m2 17.164c2.447-2.066 4-5.144 4-8.582 0-3.438-1.553-6.516-4-8.582m6.827 5.7H4.098m15.804 6.141H4.098"/>
</svg>
